source/img/vk-icon.svg

<svg width="30" height="30" viewBox="0 0 30 30" fill="none" xmlns="http://www.w3.org/2000/svg">
<path fill-rule="evenodd" clip-rule="evenodd" d="M3 0C1.34315 0 0 1.34315 0 3V27C0 28.6569 1.34315 30 3 30H27C28.6569 30 30 28.6569 30 27V3C30 1.34315 28.6569 0 27 0H3ZM22.49 16.5974C23.1787 17.2693 23.9069 17.9018 24.525 18.6446C24.7981 18.9728 25.0565 19.3114 25.2533 19.6917C25.5328 20.2366 25.2795 20.8335 24.7928 20.8664L21.7681 20.8651C20.9873 20.9293 20.3652 20.6145 19.8405 20.0804C19.4233 19.6551 19.0333 19.1999 18.6305 18.7602C18.4666 18.5791 18.2932 18.4098 18.0872 18.2747C17.674 18.007 17.3156 18.0883 17.0794 18.5186C16.8392 18.957 16.7828 19.4438 16.7606 19.9319C16.7277 20.6445 16.5127 20.8309 15.7975 20.8652C14.2673 20.936 12.8161 20.7036 11.4684 19.9333C10.2781 19.2537 9.35703 18.2929 8.55514 17.2065C6.99237 15.0884 5.79547 12.7631 4.72081 10.3709C4.47791 9.83176 4.65534 9.54284 5.24822 9.53242C6.23657 9.5129 7.22453 9.51528 8.21149 9.5311C8.61297 9.53782 8.87934 9.76728 9.0329 10.1465C9.56703 11.459 10.2204 12.7081 11.0405 13.867C11.2598 14.1754 11.4829 14.4824 11.799 14.7001C12.1493 14.9416 12.4171 14.8627 12.5823 14.4704C12.6875 14.2211 12.7335 13.9561 12.7557 13.6896C12.8343 12.7776 12.8437 11.8645 12.7083 10.9551C12.6243 10.3867 12.3029 10.0192 11.7361 9.91174C11.4472 9.85662 11.4905 9.75046 11.6296 9.58484C11.8739 9.30033 12.1036 9.1229 12.5589 9.1229H15.6875C15.8803 9.1229 16.0782 9.12782 16.2551 9.20446C16.5632 9.33795 16.6522 9.57999 16.7107 10.0128L16.7134 13.8119C16.707 14.0218 16.8185 14.6436 17.1951 14.7814C17.4967 14.8811 17.6976 14.6382 17.8787 14.4467C18.6974 13.578 19.2816 12.5507 19.8036 11.4878C20.0347 11.0205 20.2342 10.5351 20.4284 10.0493C20.5715 9.68987 20.7945 9.51284 21.2 9.51923L24.4912 9.52325C24.5883 9.52325 24.6881 9.52325 24.7838 9.53901C25.3374 9.63475 25.4897 9.87363 25.3176 10.4155C25.0489 11.2644 24.5225 11.9732 24.0095 12.683C23.4595 13.4429 22.8744 14.1762 22.3285 14.9401C21.8299 15.6396 21.8692 15.9913 22.49 16.5974Z" fill="#2A528E"/>
</svg>

<svg width="30" height="30" fill="none" xmlns="http://www.w3.org/2000/svg"><path fill-rule="evenodd" clip-rule="evenodd" d="M3 0a3 3 0 00-3 3v24a3 3 0 003 3h24a3 3 0 003-3V3a3 3 0 00-3-3H3zm19.49 16.597c.689.672 1.417 1.305 2.035 2.048.273.328.532.666.728 1.047.28.545.026 1.142-.46 1.174h-3.025c-.78.063-1.403-.252-1.928-.786-.417-.425-.807-.88-1.21-1.32a2.85 2.85 0 00-.543-.485c-.413-.268-.771-.187-1.008.244-.24.438-.296.925-.318 1.413-.033.713-.248.899-.963.933-1.53.071-2.982-.161-4.33-.932-1.19-.68-2.111-1.64-2.913-2.727-1.563-2.118-2.76-4.443-3.834-6.835-.243-.54-.066-.828.527-.839a79.1 79.1 0 012.963 0c.402.006.668.235.822.614.534 1.313 1.187 2.562 2.008 3.721.219.308.442.615.758.833.35.242.618.163.783-.23.105-.249.151-.514.174-.78.078-.912.088-1.825-.048-2.735-.084-.568-.405-.936-.972-1.043-.289-.055-.245-.162-.106-.327.244-.285.474-.462.929-.462h3.129c.192 0 .39.005.567.081.308.134.397.376.456.809l.002 3.799c-.006.21.105.832.482.97.302.1.503-.144.684-.335.818-.869 1.403-1.896 1.925-2.96a19.9 19.9 0 00.624-1.438c.143-.36.366-.536.772-.53l3.291.004c.097 0 .197 0 .293.016.553.096.706.335.534.877-.27.848-.796 1.557-1.309 2.267-.55.76-1.135 1.493-1.68 2.257-.5.7-.46 1.051.161 1.657z" fill="#2A528E"/></svg>
